svg/OSM-icons/power #8e7489 °ffffff !label=enpower supply,deStromversorgung/26005;power=generator;!generator..source=;[generator];!label=enpower plant,deKraftwerk.svg

<svg xmlns="http://www.w3.org/2000/svg" viewBox="0 0 580 580" enable-background="new 0 0 580 580"><path fill="#111" stroke="#eee" stroke-width="3.408" d="m66.28 1.768c-41.34 0-64.57 21.371-64.57 65.04v450.12c0 40.844 20.894 62.23 62.19 62.23h452.02c41.31 0 62.23-20.316 62.23-62.23v-450.12c0-42.601-20.923-65.04-63.52-65.04-.003 0-448.49-.143-448.35 0z"/><path fill="#fff" d="m290 42.513c-136.68 0-247.49 110.8-247.49 247.49s110.8 247.49 247.49 247.49 247.49-110.8 247.49-247.49-110.8-247.49-247.49-247.49m59.51 379.29l-72.61 75.73-3.565-104.85 25.827 24.891 39.927-134.99-111 20.759-26.995 5.343 7.752-28.322 54.16-197.88 52.35 17.07-63.13 166.05 126.7-11.953-63.23 169.4 33.828-1.24"/></svg>

<?xml version="1.0" encoding="utf-8"?>
<!-- Generator: Adobe Illustrator 15.0.0, SVG Export Plug-In . SVG Version: 6.00 Build 0)  -->
<!DOCTYPE svg PUBLIC "-//W3C//DTD SVG 1.1//EN" "http://www.w3.org/Graphics/SVG/1.1/DTD/svg11.dtd">
<svg version="1.1" xmlns="http://www.w3.org/2000/svg" xmlns:xlink="http://www.w3.org/1999/xlink" x="0px" y="0px" width="580px"
	 height="580px" viewBox="0 0 580 580" enable-background="new 0 0 580 580" xml:space="preserve">
<g id="Layer_2">
	<g id="g1327">
		<path id="path1329" fill="#111111" stroke="#EEEEEE" stroke-width="3.408" d="M66.275,1.768
			c-41.335,0-64.571,21.371-64.571,65.036v450.123c0,40.844,20.894,62.229,62.192,62.229H515.92
			c41.307,0,62.229-20.316,62.229-62.229V66.804c0-42.601-20.923-65.036-63.522-65.036C514.624,1.768,66.133,1.625,66.275,1.768z"/>
	</g>
</g>
<g id="svg2" xmlns:inkscape="http://www.inkscape.org/namespaces/inkscape" xmlns:cc="http://creativecommons.org/ns#" xmlns:svg="http://www.w3.org/2000/svg" xmlns:dc="http://purl.org/dc/elements/1.1/" xmlns:rdf="http://www.w3.org/1999/02/22-rdf-syntax-ns#" xmlns:sodipodi="http://sodipodi.sourceforge.net/DTD/sodipodi-0.dtd" inkscape:output_extension="org.inkscape.output.svg.inkscape" sodipodi:docname="waste_bin.svg" sodipodi:version="0.32" inkscape:version="0.46">
	<path fill="#FFFFFF" d="M290,42.513C153.316,42.513,42.513,153.316,42.513,290S153.316,537.487,290,537.487
		S537.487,426.684,537.487,290S426.684,42.513,290,42.513z M349.51,421.802l-72.613,75.728l-3.565-104.854l25.827,24.891
		l39.927-134.991l-111.003,20.759l-26.995,5.343l7.752-28.322l54.158-197.883l52.347,17.069l-63.127,166.053l126.696-11.953
		l-63.232,169.4L349.51,421.802z"/>
</g>
</svg>
